logo/linkedin-icon.svg

<?xml version="1.0" encoding="UTF-8"?>
<svg width="256px" height="256px" viewBox="0 0 256 256" version="1.1" xmlns="http://www.w3.org/2000/svg" xmlns:xlink="http://www.w3.org/1999/xlink" preserveAspectRatio="xMidYMid">
    <g>
        <path d="M218.123122,218.127392 L180.191928,218.127392 L180.191928,158.724263 C180.191928,144.559023 179.939053,126.323993 160.463756,126.323993 C140.707926,126.323993 137.685284,141.757585 137.685284,157.692986 L137.685284,218.123441 L99.7540894,218.123441 L99.7540894,95.9665207 L136.168036,95.9665207 L136.168036,112.660562 L136.677736,112.660562 C144.102746,99.9650027 157.908637,92.3824528 172.605689,92.9280076 C211.050535,92.9280076 218.138927,118.216023 218.138927,151.114151 L218.123122,218.127392 Z M56.9550587,79.2685282 C44.7981969,79.2707099 34.9413443,69.4171797 34.9391618,57.260052 C34.93698,45.1029244 44.7902948,35.2458562 56.9471566,35.2436736 C69.1040185,35.2414916 78.9608713,45.0950217 78.963054,57.2521493 C78.9641017,63.090208 76.6459976,68.6895714 72.5186979,72.8184433 C68.3913982,76.9473153 62.7929898,79.26748 56.9550587,79.2685282 M75.9206558,218.127392 L37.94995,218.127392 L37.94995,95.9665207 L75.9206558,95.9665207 L75.9206558,218.127392 Z M237.033403,0.0182577091 L18.8895249,0.0182577091 C8.57959469,-0.0980923971 0.124827038,8.16056231 -0.001,18.4706066 L-0.001,237.524091 C0.120519052,247.839103 8.57460631,256.105934 18.8895249,255.9977 L237.033403,255.9977 C247.368728,256.125818 255.855922,247.859464 255.999,237.524091 L255.999,18.4548016 C255.851624,8.12438979 247.363742,-0.133792868 237.033403,0.000790807055" fill="#0A66C2"></path>
    </g>
</svg>

<svg viewBox="0 0 256 256" xmlns="http://www.w3.org/2000/svg"><path fill="#0A66C2" d="M218.12 218.12h-37.94v-59.41c0-14.17-.26-32.41-19.73-32.41 -19.76 0-22.78 15.43-22.78 31.36v60.43H99.73V95.93h36.41v16.69h.5c7.42-12.7 21.23-20.28 35.92-19.74 38.44 0 45.53 25.28 45.53 58.18l-.02 67.01ZM56.95 79.26c-12.16 0-22.02-9.86-22.02-22.01 -.01-12.16 9.85-22.02 22-22.02 12.15-.01 22.01 9.85 22.01 22 0 5.83-2.32 11.43-6.45 15.56 -4.13 4.12-9.73 6.44-15.57 6.45m18.96 138.85H37.9V95.92h37.97v122.16ZM236.99-.02H18.84C8.53-.14.07 8.12-.06 18.43v219.05c.12 10.31 8.57 18.58 18.89 18.47h218.14c10.33.12 18.82-8.14 18.96-18.48V18.4c-.15-10.34-8.64-18.59-18.97-18.46"/></svg>
